X:32
T:Bon-Echo Breakdo
R:reel
C:Bruce Osborne - Mar. 2002
Z:abc by bosborne@kos.net
M:2/4
L:1/8
K:Cmaj
g/f/|e/c/c/B/ c/G/E/G/|F/E/F/G/ A/c/B/A/|G/E/C/E/ G/E/C/E/|D/C/D/E/ Dg/f/|\
e/c/c/B/ c/G/E/G/|F/E/F/G/ A/c/B/A/|G/E/C/E/ F/D/B,/D/|(3C/B,/C/ E/D/ C:|
|:g/f/|e/c/c/B/ c/G/E/G/|e/c/c/B/ cB/c/|d/B/B/G/ D/G/B/d/|c/B/c/d/ eg/f/|\
e/c/c/B/ c/G/E/G/|F/E/F/G/ A/c/B/A/|G/A/B/A/ G/F/D/B,/|(3C/B,/C/ E/D/ C:|
